docs/img/footer/facebook.svg

<svg width="80" height="80" viewBox="0 0 80 80" fill="none" xmlns="http://www.w3.org/2000/svg">
<g id="Facebook">
<path id="back" fill-rule="evenodd" clip-rule="evenodd" d="M0 40C0 17.9086 17.9086 0 40 0C62.0914 0 80 17.9086 80 40C80 62.0914 62.0914 80 40 80C17.9086 80 0 62.0914 0 40Z" fill="#3B5998"/>
<path id="Shape" fill-rule="evenodd" clip-rule="evenodd" d="M42.8341 62.1871V40.425H48.8414L49.6375 32.9256H42.8341L42.8443 29.1721C42.8443 27.2162 43.0302 26.1682 45.8395 26.1682H49.595V18.668H43.5869C36.3701 18.668 33.83 22.306 33.83 28.4239V32.9265H29.3315V40.4258H33.83V62.1871H42.8341Z" fill="white"/>
</g>
</svg>

<svg width="80" height="80" fill="none" xmlns="http://www.w3.org/2000/svg"><g fill-rule="evenodd" clip-rule="evenodd"><path d="M0 40C0 17.909 17.909 0 40 0s40 17.909 40 40-17.909 40-40 40S0 62.091 0 40z" fill="#3B5998"/><path d="M42.834 62.187V40.425h6.007l.797-7.5h-6.804l.01-3.753c0-1.956.186-3.004 2.995-3.004h3.756v-7.5h-6.008c-7.217 0-9.757 3.638-9.757 9.756v4.502h-4.498v7.5h4.498v21.761h9.004z" fill="#fff"/></g></svg>
